icons/ticket-chevron-left.svg

<svg xmlns="http://www.w3.org/2000/svg" width="24" height="24" viewBox="0 0 24 24">
  <path d="M20,4 C21.5976809,4 22.9036609,5.24891996 22.9949073,6.82372721 L23,7 L23,10 L22,10 C20.8954305,10 20,10.8954305 20,12 C20,13.0543618 20.8158778,13.9181651 21.8507377,13.9945143 L22,14 L23,14 L23,17 C23,18.5976809 21.75108,19.9036609 20.1762728,19.9949073 L20,20 L4,20 C2.40231912,20 1.09633912,18.75108 1.00509269,17.1762728 L1,17 L1,14 L2,14 C3.1045695,14 4,13.1045695 4,12 C4,10.9456382 3.18412221,10.0818349 2.14926234,10.0054857 L2,10 L1,10 L1,7 C1,5.40231912 2.24891996,4.09633912 3.82372721,4.00509269 L4,4 L20,4 Z M12.3871006,8.20970461 L12.2928932,8.29289322 L9.29289322,11.2928932 C8.93240926,11.6533772 8.90467972,12.2206082 9.20970461,12.6128994 L9.29289322,12.7071068 L12.2928932,15.7071068 C12.6834175,16.0976311 13.3165825,16.0976311 13.7071068,15.7071068 C14.0675907,15.3466228 14.0953203,14.7793918 13.7902954,14.3871006 L13.7071068,14.2928932 L11.415,12 L13.7071068,9.70710678 C14.0675907,9.34662282 14.0953203,8.77939176 13.7902954,8.38710056 L13.7071068,8.29289322 C13.3466228,7.93240926 12.7793918,7.90467972 12.3871006,8.20970461 Z"/>
</svg>

<svg xmlns="http://www.w3.org/2000/svg" viewBox="0 0 24 24">
  <path d="M20 4a3 3 0 0 1 3 2.82V10h-1a2 2 0 0 0-.15 4H23v3a3 3 0 0 1-2.82 3H4a3 3 0 0 1-3-2.82V14h1a2 2 0 0 0 .15-4H1V7a3 3 0 0 1 2.82-3H20zm-7.61 4.21-.1.08-3 3a1 1 0 0 0-.08 1.32l.08.1 3 3a1 1 0 0 0 1.5-1.32l-.08-.1L11.4 12l2.3-2.3a1 1 0 0 0 .08-1.31l-.08-.1a1 1 0 0 0-1.32-.08z"/>
</svg>
